svgs/regular/text.svg

<svg xmlns="http://www.w3.org/2000/svg" viewBox="0 0 448 512"><!-- Font Awesome Pro 6.0.0-alpha2 by @fontawesome - https://fontawesome.com License - https://fontawesome.com/license (Commercial License) --><path d="M448 56V136C448 149.25 437.25 160 424 160S400 149.25 400 136V80H248V432H296C309.25 432 320 442.75 320 456S309.25 480 296 480H152C138.75 480 128 469.25 128 456S138.75 432 152 432H200V80H48V136C48 149.25 37.25 160 24 160S0 149.25 0 136V56C0 42.75 10.75 32 24 32H424C437.25 32 448 42.75 448 56Z"/></svg>

<svg xmlns="http://www.w3.org/2000/svg" viewBox="0 0 448 512"><!--! Font Awesome Pro 6.4.0 by @fontawesome - https://fontawesome.com License - https://fontawesome.com/license (Commercial License) Copyright 2023 Fonticons, Inc. --><path d="M48 80v48c0 13.3-10.7 24-24 24s-24-10.7-24-24V72C0 49.9 17.9 32 40 32H408c22.1 0 40 17.9 40 40v56c0 13.3-10.7 24-24 24s-24-10.7-24-24V80H248l0 352h48c13.3 0 24 10.7 24 24s-10.7 24-24 24H152c-13.3 0-24-10.7-24-24s10.7-24 24-24h48l0-352H48z"/></svg>
